src/assets/svg/icons/fa/nuevos/classic/light/face-grin-tongue-wink classic light.svg

<svg xmlns="http://www.w3.org/2000/svg" viewBox="0 0 512 512"><!--! Font Awesome Pro 6.4.0 by @fontawesome - https://fontawesome.com License - https://fontawesome.com/license (Commercial License) Copyright 2023 Fonticons, Inc. --><path d="M256 32C132.3 32 32 132.3 32 256c0 79.8 41.7 149.8 104.5 189.5c7.5 4.7 9.7 14.6 5 22.1s-14.6 9.7-22.1 5C47.7 427.3 0 347.2 0 256C0 114.6 114.6 0 256 0S512 114.6 512 256c0 91.2-47.7 171.3-119.5 216.6c-7.5 4.7-17.4 2.5-22.1-5s-2.5-17.4 5-22.1C438.3 405.8 480 335.8 480 256C480 132.3 379.7 32 256 32zm96 351.4V416c0 53-43 96-96 96s-96-43-96-96V383.3c-20.2-15.7-36.3-36.2-46.8-59.8c-5.2-11.7 6.8-22.4 19.1-18.7c37.3 11.1 79.3 17.4 123.8 17.4s86.4-6.3 123.8-17.4c12.3-3.7 24.2 7 19.1 18.7c-10.4 23.6-26.6 44.2-46.9 59.9zm-32-4.7c0-14.7-11.9-26.6-26.6-26.6h-2c-11.3 0-21.1 7.9-23.6 18.9c-2.8 12.6-20.8 12.6-23.6 0c-2.5-11.1-12.3-18.9-23.6-18.9h-2c-14.7 0-26.6 11.9-26.6 26.6V416c0 35.3 28.7 64 64 64s64-28.7 64-64V378.6zM336 256a48 48 0 1 0 0-96 48 48 0 1 0 0 96zm0-128a80 80 0 1 1 0 160 80 80 0 1 1 0-160zM124.8 233.6c-5.3 7.1-15.3 8.5-22.4 3.2s-8.5-15.3-3.2-22.4c30.4-40.5 91.2-40.5 121.6 0c5.3 7.1 3.9 17.1-3.2 22.4s-17.1 3.9-22.4-3.2c-17.6-23.5-52.8-23.5-70.4 0zM336.4 184a24 24 0 1 1 0 48 24 24 0 1 1 0-48z"/></svg>

<svg xmlns="http://www.w3.org/2000/svg" viewBox="0 0 512 512"><path d="M256 32C132.3 32 32 132.3 32 256C32 335.8 73.69 405.8 136.5 445.5C144 450.2 146.2 460.1 141.5 467.6C136.8 475.1 126.9 477.3 119.5 472.6C47.71 427.3 0 347.2 0 256C0 114.6 114.6 0 256 0C397.4 0 512 114.6 512 256C512 347.2 464.3 427.3 392.5 472.6C385.1 477.3 375.2 475.1 370.5 467.6C365.8 460.1 367.1 450.2 375.5 445.5C438.3 405.8 480 335.8 480 256C480 132.3 379.7 32 256 32zM352 383.4V416C352 469 309 512 256 512C202.1 512 160 469 160 416V383.3C139.8 367.6 123.7 347.1 113.2 323.5C108.1 311.8 120 301.1 132.3 304.7C169.6 315.9 211.6 322.1 256 322.1C300.5 322.1 342.5 315.9 379.8 304.7C392.1 301.1 404 311.8 398.9 323.5C388.4 347.1 372.2 367.7 352 383.4V383.4zM293.4 352H291.4C280.1 352 270.3 359.9 267.8 370.9C264.1 383.5 247 383.5 244.2 370.9C241.7 359.9 231.9 352 220.6 352H218.6C203.9 352 192 363.9 192 378.6V416C192 451.3 220.7 480 256 480C291.3 480 320 451.3 320 416V378.6C320 363.9 308.1 352 293.4 352zM312.4 208C312.4 194.7 323.1 184 336.4 184C349.6 184 360.4 194.7 360.4 208C360.4 221.3 349.6 232 336.4 232C323.1 232 312.4 221.3 312.4 208zM256 208C256 163.8 291.8 128 336 128C380.2 128 416 163.8 416 208C416 252.2 380.2 288 336 288C291.8 288 256 252.2 256 208zM336 256C362.5 256 384 234.5 384 208C384 181.5 362.5 160 336 160C309.5 160 288 181.5 288 208C288 234.5 309.5 256 336 256zM102.4 236.8C95.33 231.5 93.9 221.5 99.2 214.4C129.6 173.9 190.4 173.9 220.8 214.4C226.1 221.5 224.7 231.5 217.6 236.8C210.5 242.1 200.5 240.7 195.2 233.6C177.6 210.1 142.4 210.1 124.8 233.6C119.5 240.7 109.5 242.1 102.4 236.8V236.8z"/></svg>
